icons/mobile/20/svg/private-mode-circle-fill-20.svg

<svg width="20" height="20" viewBox="0 0 20 20" fill="none" xmlns="http://www.w3.org/2000/svg">
<path d="M10 18C5.589 18 2 14.411 2 10C2 5.589 5.589 2 10 2C14.411 2 18 5.589 18 10C18 14.411 14.411 18 10 18Z" fill="black"/>
<path d="M15.7876 10.6189C15.2189 10.6189 14.9289 10.2067 14.8204 9.64666C14.6632 8.83519 14.3901 8.06809 14.0665 7.30284C13.9 6.90913 13.595 6.00524 13.0918 5.90173C12.5193 5.78343 12.0142 6.09212 11.3613 7.40081C10.8243 8.4803 10.4614 9.23261 10.4614 9.23261V9.24L10.0929 9.2363C10.0929 9.2363 10.0891 9.2363 10.0835 9.2363C10.0835 9.2363 10.0611 9.2363 10.033 9.2363C10.0255 9.2363 10.0199 9.2363 10.0124 9.2363C10.0068 9.2363 10.0012 9.2363 9.99558 9.2363C9.98997 9.2363 9.98435 9.2363 9.97874 9.2363C9.97126 9.2363 9.96378 9.2363 9.95816 9.2363C9.9301 9.2363 9.90765 9.2363 9.90765 9.2363L9.8983 9.23815L9.52975 9.24185V9.23445C9.52975 9.23445 9.16681 8.48029 8.62989 7.40266C7.97885 6.09212 7.47186 5.78528 6.89939 5.90358C6.39615 6.00709 6.0912 6.91282 5.9247 7.30469C5.60105 8.06994 5.32791 8.83519 5.17077 9.6485C5.06226 10.2086 4.77416 10.6189 4.20356 10.6208C4.05764 10.6208 3.96035 10.7724 4.01087 10.9073C4.13247 11.2326 4.50663 11.4396 4.81906 11.5598C4.67874 11.5968 4.25968 11.5117 4.24098 11.7224C4.22601 11.8943 4.66378 12.0681 4.78164 12.1236C5.88354 12.6541 6.89752 13.606 8.20148 13.4378C8.76833 13.3639 9.18178 12.9646 9.64574 12.7169C9.86462 12.6004 10.1303 12.6004 10.3492 12.7169C10.8131 12.9646 11.2266 13.3639 11.7934 13.4378C13.0974 13.606 14.1114 12.6541 15.2133 12.1236C15.3311 12.0663 15.767 11.8943 15.7539 11.7224C15.7371 11.5136 15.318 11.5968 15.1758 11.5598C15.4883 11.4396 15.8624 11.2326 15.984 10.9073C16.0345 10.7724 15.9354 10.6226 15.7913 10.6208L15.7876 10.6189ZM6.55142 10.898C6.53459 10.7224 6.91623 10.5875 7.05467 10.5653C7.87783 10.4285 8.96851 10.7502 9.23416 11.6023C8.47835 12.2918 6.92184 11.8167 6.55142 10.8999V10.898ZM10.7551 11.6023C11.0208 10.7502 12.1115 10.4285 12.9346 10.5653C13.0731 10.5875 13.4547 10.7224 13.4379 10.898C13.0656 11.8149 11.5109 12.2918 10.7551 11.6004V11.6023Z" fill="white"/>
</svg>

<!-- This Source Code Form is subject to the terms of the Mozilla Public
   - License, v. 2.0. If a copy of the MPL was not distributed with this
   - file, You can obtain one at http://mozilla.org/MPL/2.0/. -->
<svg xmlns="http://www.w3.org/2000/svg" width="20" height="20" fill="none" viewBox="0 0 20 20">
    <path fill="#000" d="M10 18c-4.411 0-8-3.589-8-8s3.589-8 8-8 8 3.589 8 8-3.589 8-8 8" />
    <path fill="#fff" d="M15.788 10.619c-.57 0-.86-.412-.968-.972-.157-.812-.43-1.579-.754-2.344-.166-.394-.471-1.298-.974-1.401-.573-.119-1.078.19-1.73 1.499-.538 1.08-.9 1.832-.9 1.832v.007l-.37-.004h-.184l-.01.002-.368.004v-.008s-.363-.754-.9-1.831c-.651-1.31-1.158-1.618-1.73-1.5-.504.104-.809 1.01-.975 1.402-.324.765-.597 1.53-.754 2.344-.109.56-.397.97-.967.972a.21.21 0 0 0-.193.286c.121.326.496.533.808.653-.14.037-.56-.048-.578.162-.015.172.423.346.54.402 1.103.53 2.117 1.482 3.42 1.314.567-.074.98-.473 1.445-.721a.75.75 0 0 1 .703 0c.464.248.878.647 1.444.72 1.304.169 2.318-.783 3.42-1.313.118-.058.554-.23.54-.402-.016-.208-.435-.125-.577-.162.312-.12.686-.327.808-.653a.213.213 0 0 0-.193-.286zm-9.237.279c-.016-.176.365-.31.504-.333.823-.136 1.914.185 2.18 1.037-.757.69-2.313.215-2.684-.702zm4.204.704c.266-.852 1.356-1.174 2.18-1.037.138.023.52.157.503.333-.372.917-1.927 1.394-2.683.702z" />
</svg>
